X: 9382
T: Dandy Bash
R: jig
M: 6/8
K: Gmajor
|:DE|GFG DED|G2 B d2 B|eAA BAG|EBA GDE|
G2 G DF/E/D|G2 B dB/c/d|edB AGE|GBA G:|
|:B/c/d|d2 g gfg|ege dBd|e2 A ABd|g2 g edB|
[1 dgg gfg|e/f/ge d2 B|e2 A AGE|GBA G-:|
[2 dgg bgg|eaf g2 e|d2 B AGF|G3- G||

